papirus/16x16/emblems/emblem-system.svg

<?xml version="1.0" encoding="UTF-8" standalone="no"?>
<!-- Created with Inkscape (http://www.inkscape.org/) -->

<svg
   xmlns:dc="http://purl.org/dc/elements/1.1/"
   xmlns:cc="http://creativecommons.org/ns#"
   xmlns:rdf="http://www.w3.org/1999/02/22-rdf-syntax-ns#"
   xmlns:svg="http://www.w3.org/2000/svg"
   xmlns="http://www.w3.org/2000/svg"
   xmlns:sodipodi="http://sodipodi.sourceforge.net/DTD/sodipodi-0.dtd"
   xmlns:inkscape="http://www.inkscape.org/namespaces/inkscape"
   height="16"
   width="16"
   viewBox="0 0 16 16"
   id="svg2"
   version="1.1"
   inkscape:version="0.91 r13725"
   sodipodi:docname="emblem-system.svg">
  <defs
     id="defs8" />
  <sodipodi:namedview
     pagecolor="#ffffff"
     bordercolor="#666666"
     borderopacity="1"
     objecttolerance="10"
     gridtolerance="10"
     guidetolerance="10"
     inkscape:pageopacity="0"
     inkscape:pageshadow="2"
     inkscape:window-width="1600"
     inkscape:window-height="849"
     id="namedview6"
     showgrid="false"
     units="px"
     inkscape:snap-global="true"
     inkscape:snap-bbox="true"
     inkscape:bbox-paths="true"
     inkscape:bbox-nodes="true"
     inkscape:snap-bbox-edge-midpoints="true"
     inkscape:snap-bbox-midpoints="true"
     inkscape:object-paths="true"
     inkscape:snap-intersection-paths="true"
     inkscape:object-nodes="true"
     inkscape:snap-smooth-nodes="true"
     inkscape:snap-midpoints="true"
     inkscape:snap-object-midpoints="true"
     inkscape:snap-center="true"
     inkscape:zoom="1"
     inkscape:cx="-4.7471364"
     inkscape:cy="15.570634"
     inkscape:window-x="0"
     inkscape:window-y="0"
     inkscape:window-maximized="1"
     inkscape:current-layer="svg2"
     showguides="false"
     inkscape:guide-bbox="true">
    <inkscape:grid
       type="xygrid"
       id="grid3195" />
    <sodipodi:guide
       position="24,18"
       orientation="1,0"
       id="guide3260" />
    <sodipodi:guide
       position="23,24"
       orientation="0,1"
       id="guide3262" />
  </sodipodi:namedview>
  <metadata
     id="metadata4">
    <rdf:RDF>
      <cc:Work
         rdf:about="">
        <dc:format>image/svg+xml</dc:format>
        <dc:type
           rdf:resource="http://purl.org/dc/dcmitype/StillImage" />
        <dc:title></dc:title>
      </cc:Work>
    </rdf:RDF>
  </metadata>
  <g
     id="g4242"
     transform="scale(0.5,0.5)">
    <circle
       r="14"
       cy="16"
       cx="16"
       id="path3197"
       style="opacity:1;fill:#646464;fill-opacity:1;stroke:none;stroke-width:2;stroke-miterlimit:4;stroke-dasharray:none;stroke-opacity:1" />
    <path
       id="rect4187"
       d="m 14,7 0,1.2597656 A 8,8 0 0 0 11.943359,9.1152344 L 11.050781,8.2226562 8.2226562,11.050781 9.1152344,11.943359 A 8,8 0 0 0 8.265625,14 L 7,14 l 0,4 1.2597656,0 a 8,8 0 0 0 0.8554688,2.056641 l -0.8925782,0.892578 2.8281248,2.828125 0.892578,-0.892578 A 8,8 0 0 0 14,23.734375 L 14,25 l 4,0 0,-1.259766 a 8,8 0 0 0 2.056641,-0.855468 l 0.892578,0.892578 2.828125,-2.828125 -0.892578,-0.892578 A 8,8 0 0 0 23.734375,18 L 25,18 25,14 23.740234,14 A 8,8 0 0 0 22.884766,11.943359 L 23.777344,11.050781 20.949219,8.2226562 20.056641,9.1152344 A 8,8 0 0 0 18,8.265625 L 18,7 14,7 Z m 2,5 a 4,4 0 0 1 4,4 4,4 0 0 1 -4,4 4,4 0 0 1 -4,-4 4,4 0 0 1 4,-4 z"
       style="opacity:1;fill:#ffffff;fill-opacity:1;stroke:none;stroke-width:2;stroke-linecap:round;stroke-linejoin:round;stroke-miterlimit:4;stroke-dasharray:none;stroke-opacity:1"
       inkscape:connector-curvature="0" />
  </g>
</svg>

<?xml version="1.0" encoding="UTF-8" standalone="no"?>
<!-- Created with Inkscape (http://www.inkscape.org/) -->
<svg id="svg2" xmlns:rdf="http://www.w3.org/1999/02/22-rdf-syntax-ns#" xmlns="http://www.w3.org/2000/svg" height="16" width="16" version="1.1" xmlns:cc="http://creativecommons.org/ns#" xmlns:dc="http://purl.org/dc/elements/1.1/" viewBox="0 0 16 16">
 <metadata id="metadata4">
  <rdf:RDF>
   <cc:Work rdf:about="">
    <dc:format>image/svg+xml</dc:format>
    <dc:type rdf:resource="http://purl.org/dc/dcmitype/StillImage"/>
    <dc:title/>
   </cc:Work>
  </rdf:RDF>
 </metadata>
 <g id="g4242" transform="scale(.5)">
  <circle id="path3197" cy="16" cx="16" r="14" fill="#646464"/>
  <path id="rect4187" d="m14 7v1.2598a8 8 0 0 0 -2.057 0.8554l-0.892-0.8925-2.8283 2.8283 0.8925 0.892a8 8 0 0 0 -0.8496 2.057h-1.2656v4h1.2598a8 8 0 0 0 0.85547 2.0566l-0.89258 0.89258 2.8281 2.8281 0.89258-0.89258a8 8 0 0 0 2.057 0.849v1.266h4v-1.2598a8 8 0 0 0 2.0566 -0.85547l0.89258 0.89258 2.8281-2.8281-0.89258-0.89258a8 8 0 0 0 0.849 -2.057h1.266v-4h-1.26a8 8 0 0 0 -0.855 -2.057l0.892-0.892-2.828-2.8283-0.892 0.8925a8 8 0 0 0 -2.057 -0.8496v-1.2656h-4zm2 5a4 4 0 0 1 4 4 4 4 0 0 1 -4 4 4 4 0 0 1 -4 -4 4 4 0 0 1 4 -4z" fill="#fff"/>
 </g>
</svg>
